packages/foundations/assets/icons/functional/images/notification/bell_28_filled.svg

<svg width="28" height="28" viewBox="0 0 28 28" fill="none" xmlns="http://www.w3.org/2000/svg">
<g clip-path="url(#clip0_2214_8032)">
<path fill-rule="evenodd" clip-rule="evenodd" d="M14.0273 1.75061C14.4922 1.75061 14.875 2.16081 14.875 2.62561V5.3053C18.621 5.7155 21 8.778 21 13.3444V16.6256C21 18.9225 21.5742 20.0709 23.2148 21.1374C23.4609 21.3014 23.625 21.5749 23.625 21.8756C23.625 22.3952 23.2157 22.7505 22.7499 22.7505H17.5C17.5 24.6921 15.9415 26.2505 14 26.2505C12.0585 26.2505 10.5 24.6921 10.5 22.7505L5.25 22.7506C4.7852 22.7506 4.375 22.3952 4.375 21.8756C4.375 21.5749 4.53906 21.3014 4.7852 21.1374C6.42583 20.0709 7 18.9225 7.00009 16.6256L7 13.3444C7 8.778 9.37895 5.7155 13.125 5.3053V2.62561C13.125 2.13342 13.5078 1.72331 14 1.75079L14.0273 1.75061ZM15.75 22.7505L12.25 22.7506C12.25 23.7077 13.0429 24.5006 14 24.5005C14.9571 24.5006 15.75 23.7077 15.75 22.7505Z" fill="#1A1C1F"/>
</g>
<defs>
<clipPath id="clip0_2214_8032">
<rect width="28" height="28" fill="white"/>
</clipPath>
</defs>
</svg>

<svg xmlns="http://www.w3.org/2000/svg" width="28" height="28" fill="none"><g clip-path="url(#a)"><path fill="#1A1C1F" fill-rule="evenodd" d="M14.027 1.75c.465 0 .848.41.848.876v2.68C18.621 5.715 21 8.777 21 13.343v3.282c0 2.296.574 3.445 2.215 4.511.246.164.41.438.41.739 0 .52-.41.874-.875.874H17.5a3.49 3.49 0 0 1-3.5 3.5 3.49 3.49 0 0 1-3.5-3.5H5.25a.864.864 0 0 1-.875-.874c0-.301.164-.575.41-.739C6.425 20.071 7 18.922 7 16.626v-3.282c0-4.566 2.379-7.628 6.125-8.039v-2.68c0-.492.383-.902.875-.874zm1.723 21h-3.5c0 .958.793 1.75 1.75 1.75s1.75-.792 1.75-1.75" clip-rule="evenodd"/></g><defs><clipPath id="a"><path fill="#fff" d="M0 0h28v28H0z"/></clipPath></defs></svg>
